src/flags/country-flag/1F1FB-1F1E6.svg

<svg id="emoji" viewBox="0 0 72 72" xmlns="http://www.w3.org/2000/svg">
  <g id="grid">
    <path fill="#b3b3b3" d="M68,4V68H4V4H68m4-4H0V72H72V0Z"/>
    <path fill="none" stroke="#00a5ff" stroke-miterlimit="10" stroke-width="0.1" d="M12.923,10.9583H59.0769A1.9231,1.9231,0,0,1,61,12.8814V59.0352a1.9231,1.9231,0,0,1-1.9231,1.9231H12.9231A1.9231,1.9231,0,0,1,11,59.0352V12.8813A1.923,1.923,0,0,1,12.923,10.9583Z"/>
    <rect x="16" y="4" rx="2.2537" ry="2.2537" width="40" height="64" fill="none" stroke="#00a5ff" stroke-miterlimit="10" stroke-width="0.1"/>
    <rect x="16" y="4" rx="2.2537" ry="2.2537" width="40" height="64" transform="translate(72) rotate(90)" fill="none" stroke="#00a5ff" stroke-miterlimit="10" stroke-width="0.1"/>
    <circle cx="36" cy="36" r="29" fill="none" stroke="#00a5ff" stroke-miterlimit="10" stroke-width="0.1"/>
  </g>
  <g id="color">
    <rect x="17" y="17" width="38" height="38" fill="#fff"/>
    <rect x="17" y="17" width="19" height="38" fill="#fcea2b"/>
    <g>
      <ellipse cx="44.7274" cy="29.8602" rx="1.9462" ry="2.703" fill="#9b9b9a"/>
      <g>
        <line x1="43.6125" x2="45.8423" y1="28.7453" y2="28.7453" fill="none" stroke="#fcea2b" stroke-linecap="round" stroke-linejoin="round" stroke-width="0.9103"/>
        <line x1="43.6125" x2="45.8423" y1="29.8602" y2="29.8602" fill="none" stroke="#fcea2b" stroke-linecap="round" stroke-linejoin="round" stroke-width="0.9103"/>
        <line x1="43.6125" x2="45.8423" y1="30.9751" y2="30.9751" fill="none" stroke="#fcea2b" stroke-linecap="round" stroke-linejoin="round" stroke-width="0.9103"/>
      </g>
    </g>
    <path fill="none" stroke="#d22f27" stroke-linecap="round" stroke-linejoin="round" stroke-width="1.1468" d="M40.2017,42.2844c2.54,2.54,6.8992,2.29,9.747-.5575"/>
    <g>
      <path fill="#9b9b9a" d="M47.9343,36.1387a3.2621,3.2621,0,1,0,3.9646,2.3588A3.2622,3.2622,0,0,0,47.9343,36.1387Zm1.3,5.1189a2.0193,2.0193,0,1,1,1.46-2.4542A2.0193,2.0193,0,0,1,49.2342,41.2576Z"/>
      <rect x="42.8454" y="30.3687" rx="0.4164" ry="0.4164" width="1.4686" height="8.8114" transform="translate(-11.2822 44.7052) rotate(-48.8483)" fill="#9b9b9a"/>
      <rect x="39.7038" y="32.3358" rx="0.369" ry="0.369" width="1.4686" height="1.8096" transform="translate(31.8635 -18.3991) rotate(41.1517)" fill="#9b9b9a"/>
      <rect x="41.2676" y="33.7025" rx="0.369" ry="0.369" width="1.4686" height="1.8096" transform="translate(33.1492 -19.0905) rotate(41.1517)" fill="#9b9b9a"/>
    </g>
    <g>
      <path fill="#fcea2b" d="M37.5178,38.8188a3.262,3.262,0,1,0,3.8347-2.5645A3.262,3.262,0,0,0,37.5178,38.8188Zm1.2189.2419a2.0193,2.0193,0,1,1,1.5875,2.3739A2.0192,2.0192,0,0,1,38.7367,39.0607Z"/>
      <rect x="44.8948" y="30.2566" rx="0.4164" ry="0.4164" width="1.4686" height="8.8114" transform="translate(52.5644 91.5427) rotate(-134.1739)" fill="#fcea2b"/>
      <rect x="47.9512" y="32.0601" rx="0.369" ry="0.369" width="1.4686" height="1.8096" transform="translate(106.5753 22.6824) rotate(135.8261)" fill="#fcea2b"/>
      <rect x="46.4616" y="33.5073" rx="0.369" ry="0.369" width="1.4686" height="1.8096" transform="translate(105.0258 26.2056) rotate(135.8261)" fill="#fcea2b"/>
    </g>
  </g>
  <g id="line">
    <rect x="17" y="17" width="38" height="38" fill="none" stroke="#000" stroke-linecap="round" stroke-linejoin="round" stroke-width="2"/>
  </g>
</svg>

<svg viewBox="0 0 72 72" xmlns="http://www.w3.org/2000/svg"><path fill="#b3b3b3" d="M68 4v64H4V4h64m4-4H0v72h72V0z"/><path fill="none" stroke="#00a5ff" stroke-miterlimit="10" stroke-width=".1" d="M12.923 10.958h46.154A1.923 1.923 0 0161 12.881v46.154a1.923 1.923 0 01-1.923 1.923H12.923A1.923 1.923 0 0111 59.035V12.881a1.923 1.923 0 011.923-1.923z"/><rect x="16" y="4" rx="2.254" ry="2.254" width="40" height="64" fill="none" stroke="#00a5ff" stroke-miterlimit="10" stroke-width=".1"/><rect x="16" y="4" rx="2.254" ry="2.254" width="40" height="64" transform="rotate(90 36 36)" fill="none" stroke="#00a5ff" stroke-miterlimit="10" stroke-width=".1"/><circle cx="36" cy="36" r="29" fill="none" stroke="#00a5ff" stroke-miterlimit="10" stroke-width=".1"/><path d="M17 17h38v38H17z" stroke-linecap="round" stroke-miterlimit="10" stroke-width="6" stroke="#fff" fill="none" stroke-linejoin="round"/><path fill="#fff" d="M17 17h38v38H17z"/><path fill="#fcea2b" d="M17 17h19v38H17z"/><ellipse cx="44.727" cy="29.86" rx="1.946" ry="2.703" fill="#9b9b9a"/><path d="M43.612 28.745h2.23m-2.23 1.115h2.23m-2.23 1.115h2.23" fill="none" stroke="#fcea2b" stroke-linecap="round" stroke-linejoin="round" stroke-width=".91"/><path fill="none" stroke="#d22f27" stroke-linecap="round" stroke-linejoin="round" stroke-width="1.147" d="M40.202 42.284c2.54 2.54 6.899 2.29 9.747-.557"/><g fill="#9b9b9a"><path d="M47.934 36.139a3.262 3.262 0 103.965 2.358 3.262 3.262 0 00-3.965-2.358zm1.3 5.119a2.02 2.02 0 111.46-2.455 2.02 2.02 0 01-1.46 2.455z"/><rect x="42.845" y="30.369" rx=".416" ry=".416" width="1.469" height="8.811" transform="rotate(-48.848 43.58 34.774)"/><rect x="39.704" y="32.336" rx=".369" ry=".369" width="1.469" height="1.81" transform="rotate(41.152 40.438 33.24)"/><rect x="41.268" y="33.703" rx=".369" ry=".369" width="1.469" height="1.81" transform="rotate(41.152 42.002 34.607)"/></g><g fill="#fcea2b"><path d="M37.518 38.819a3.262 3.262 0 103.835-2.565 3.262 3.262 0 00-3.835 2.565zm1.219.242a2.02 2.02 0 111.587 2.374 2.02 2.02 0 01-1.587-2.374z"/><rect x="44.895" y="30.257" rx=".416" ry=".416" width="1.469" height="8.811" transform="rotate(-134.174 45.63 34.662)"/><rect x="47.951" y="32.06" rx=".369" ry=".369" width="1.469" height="1.81" transform="rotate(135.826 48.685 32.965)"/><rect x="46.462" y="33.507" rx=".369" ry=".369" width="1.469" height="1.81" transform="rotate(135.826 47.196 34.412)"/></g><g><path fill="none" stroke="#000" stroke-linecap="round" stroke-linejoin="round" stroke-width="2" d="M17 17h38v38H17z"/></g></svg>
